outputs/icons/alert/warning_outline_sharp.svg

<svg xmlns="http://www.w3.org/2000/svg" width="1200" height="1200" fill="none"><g clip-path="url(#a)"><path fill="#000" d="M600 299.5 976.5 950h-753zm0-199.5L50 1050h1100zm50 700H550v100h100zm0-300H550v200h100z"/></g><defs><clipPath id="a"><path fill="#fff" d="M0 0h1200v1200H0z"/></clipPath></defs></svg>

<svg width="1200" height="1200" viewBox="0 0 1200 1200" fill="none" xmlns="http://www.w3.org/2000/svg"><g clip-path="url(#clip0_125_1305)"><path d="M600 299.5L976.5 950H223.5L600 299.5ZM600 100L50 1050H1150L600 100ZM650 800H550V900H650V800ZM650 500H550V700H650V500Z" fill="black"/></g><defs><clipPath id="clip0_125_1305"><path width="24" fill="white" d="M0 0H1200V1200H0V0z"/></clipPath></defs></svg>
